X: 1
T:the Glendaruel highlanders
R:Pipe march
O:Scotland
M:6/8
C:P.M. A.Fettes
K:Amix
e|\
A2A A>Bc|e>ce f2e|c>BA f<af|e3 efa|\
A2A A>Bc|e>ce f2e|f<ac e>dB|(A3 A2)::
e/d/|\
c2A c>eB|c2A A>ce|f2d a>gf\
|1  (e3 e)ed|c2A c>eB|c2A A>ce|f>ec e>dB|(A3A2)|
:|2 (e3 e)fg|a2c c>de|f2B B>ce|f<ac e>dB|(A3 A2)|]
